X:1
T:Title
%%score { ( 1 3 ) | ( 2 4 ) }
L:1/8
Q:1/4=104
M:4/4
K:G
V:1 treble nm="Grand Piano"
V:3 treble 
V:2 bass 
V:4 bass 
V:1
 [B,D]2 [DB]2 [B,G]2 [B,D]2 | [CE]2 [Ec]2 [EA]2 E2 | F2 A2 E2 F2 | [CE]4 [B,D]2 z2 | %4
w: Edith~Sanford~Tillotson * * *||||
 [B,D]2 [DB]2 [B,G]2 [B,D]2 | [CE]2 [Ec]2 [EA]2 E2 | D2 B2 D2 A2 | [B,G]6 z2 | A2 D2 A4 | %9
w: |||||
 [DB]2 [B,G]2 [DB]4 | [Ec]2 A2 B2 [DG]2 | z4 A4 | [B,D]2 [DB]2 [B,G]2 [B,D]2 | %13
w: ||||
 [CE]2 [Ec]2 [EA]2 E2 | D2 B2 D2 A2 | [B,G]6 z2 |] %16
w: |||
V:2
 [G,,G,]2 [G,,G,]2 [G,,D,]2 [G,,G,]2 | [C,G,]2 [C,G,]2 [C,C]2 [C,A,C]2 | %2
 [D,A,C]2 [D,F,C]2 [D,G,C]2 [D,A,C]2 | [G,,G,]6 z2 | [G,,G,]2 [G,,G,]2 [G,,D,]2 [G,,G,]2 | %5
 [C,G,]2 [C,G,]2 [C,C]2 [C,G,C]2 | [D,G,B,]2 [D,G,D]2 [D,F,C]2 [D,F,C]2 | [G,,G,]6 z2 | %8
 [D,F,C]2 [D,F,C]2 [D,F,C]4 | [G,,G,]2 [G,,E,]2 [G,,G,]4 | [C,G,]2 [D,F,D]2 [G,D]2 [B,,G,]2 | %11
 z4 D2 z2 | [G,,G,]2 [G,,G,]2 [G,,D,]2 [G,,G,]2 | [C,G,]2 [C,G,]2 [C,C]2 [C,G,C]2 | %14
 [D,G,B,]2 [D,G,D]2 [D,F,C]2 [D,F,C]2 | [G,,G,]6 z2 |] %16
V:3
 x8 | x8 | x8 | x8 | x8 | x8 | x8 | x8 | x8 | x8 | x8 | [DA]2 [^CE]2 z2 =C2 | x8 | x8 | x8 | x8 |] %16
V:4
 x8 | x8 | x8 | x8 | x8 | x8 | x8 | x8 | x8 | x8 | x8 | [A,,F,]2 [A,,G,]2 [D,F,]4 | x8 | x8 | x8 | %15
 x8 |] %16

